X: 298
T:Si Bheag Si Mhor
N: page 98
N: hexatonic
C:Turlough Carolan
Z:Probably the first tune composed by Carolan.  Si Bheag and Si Mhor
Z:are two hills in Co. Leitrim associated in the local folklore with two
Z:bands of fairies continually at war with each other.
R:planxty
M:3/4
I:speed 250
K:D
de|"D"f3ed2|"Bm"d3ed2|"G"B4 A2|"D"F4 A2|"G"BA Bc d2|"A7"e4 de|\
"D"f4 e2|"Bm"d4 f2| "G"B4 e2|"D"A4 d2|F4 "A7"E2|
"D"D4 f2|"G"B4 e2|"D"A4 "A7"dc|"D"d6-|d4:|\
de|f3 e d2|"A7"ed ef a2|"G"b4a2|"D"f4 ed|"A7"e4 a2|
"D"f4 e2|"G"d4 B2|"Bm"B4 BA| "D"F4 "A7"E2|"D"D4 f2|\
"G"B4 e2|"D"A4 a2|"G"ba gf ed|"A7"e4 dc|"D"d6-|d4:|
